Adwaita++/places/16/folder-drag-accept.svg

<svg height="16" width="16" xmlns="http://www.w3.org/2000/svg">
  <g fill="#474747">
    <path d="m2 1s-1 0-1 1v5c0-1 1-1 1-1h5l2 2h5s1 0 1 1v-5c0-1-1-1-1-1h-5l-2-2z" opacity=".3"/>
    <path d="m2 7s-1 0-1 1v5s0 1 1 1h12s1 0 1-1v-3c0-1-1-1-1-1h-5l-2-2z"/>
  </g>
</svg>

<svg xmlns="http://www.w3.org/2000/svg" width="16" height="16">
 <defs>
  <style id="current-color-scheme" type="text/css">
   .ColorScheme-Text { color:#474747; } .ColorScheme-Highlight { color:#4285f4; }
  </style>
 </defs>
 <path style="fill:currentColor;opacity:0.3" class="ColorScheme-Text" d="M 2 1 C 2 1 1 1 1 2 L 1 7 C 1 6 2 6 2 6 L 7 6 L 9 8 L 14 8 C 14 8 15 8 15 9 L 15 4 C 15 3 14 3 14 3 L 9 3 L 7 1 L 2 1 z"/>
 <path style="fill:currentColor" class="ColorScheme-Text" d="M 2 7 C 2 7 1 7 1 8 L 1 13 C 1 13 1 14 2 14 L 14 14 C 14 14 15 14 15 13 L 15 10 C 15 9 14 9 14 9 L 9 9 L 7 7 L 2 7 z"/>
</svg>
